blockchains/ethereum/assets/0x221657776846890989a759BA2973e427DfF5C9bB/logo.svg

<svg fill="none" height="250" viewBox="0 0 250 250" width="250" xmlns="http://www.w3.org/2000/svg" xmlns:xlink="http://www.w3.org/1999/xlink"><clipPath id="a"><path d="m0 0h250v250h-250z"/></clipPath><g clip-path="url(#a)"><path d="m125 250c69.036 0 125-55.964 125-125 0-69.0356-55.964-125-125-125-69.0356 0-125 55.9644-125 125 0 69.036 55.9644 125 125 125z" fill="#0e0e21"/><path d="m194.792 154.167-14.844-25.26c-.521-1.042-1.823-1.302-2.604-.521l-9.636 6.25c-.781.521-1.041 1.823-.521 2.604l8.594 14.323c.261.521 0 1.042-.26 1.302l-50 32.292c-.261.26-.781.26-1.042 0l-49.479-32.292c-.5209-.26-.5209-.781-.2604-1.302l8.5937-14.323c.5208-.781.2604-2.083-.5208-2.604l-9.6354-6.25c-1.0417-.521-2.0834-.261-2.6042.521l-14.8438 25.26c-1.0416 1.823-.5208 4.167 1.3021 5.208l66.4058 43.23c1.303.781 2.865.781 4.167 0l66.406-43.23c1.302-1.302 1.823-3.645.782-5.208z" fill="#fff"/><path d="m80.4688 114.844 9.6354 6.25c1.0417.521 2.0833.26 2.6042-.521l31.2496-53.1251c.261-.5208 1.302-.5208 1.563 0l31.25 53.1251c.521 1.042 1.823 1.302 2.604.521l9.635-6.25c.782-.521 1.042-1.823.521-2.604l-36.718-63.5421c-.782-1.3021-1.823-1.8229-3.386-1.8229h-8.854c-1.302 0-2.604.7813-3.385 1.8229l-37.24 63.5421c-.5209.781-.2604 2.083.5208 2.604z" fill="#2ae7a8"/></g></svg>

<svg width="250" height="250" viewBox="0 0 250 250" fill="none" xmlns="http://www.w3.org/2000/svg">
<g clip-path="url(#clip0_9_814)">
<path d="M125 250C194.036 250 250 194.036 250 125C250 55.9644 194.036 0 125 0C55.9644 0 0 55.9644 0 125C0 194.036 55.9644 250 125 250Z" fill="#0E0E21"/>
<path d="M194.792 154.167L179.948 128.907C179.427 127.865 178.125 127.605 177.344 128.386L167.708 134.636C166.927 135.157 166.667 136.459 167.187 137.24L175.781 151.563C176.042 152.084 175.781 152.605 175.521 152.865L125.521 185.157C125.26 185.417 124.74 185.417 124.479 185.157L75 152.865C74.4791 152.605 74.4791 152.084 74.7396 151.563L83.3333 137.24C83.8541 136.459 83.5937 135.157 82.8125 134.636L73.1771 128.386C72.1354 127.865 71.0937 128.125 70.5729 128.907L55.7291 154.167C54.6875 155.99 55.2083 158.334 57.0312 159.375L123.437 202.605C124.74 203.386 126.302 203.386 127.604 202.605L194.01 159.375C195.312 158.073 195.833 155.73 194.792 154.167Z" fill="white"/>
<path d="M80.4688 114.844L90.1042 121.094C91.1459 121.615 92.1875 121.354 92.7084 120.573L123.958 67.4479C124.219 66.9271 125.26 66.9271 125.521 67.4479L156.771 120.573C157.292 121.615 158.594 121.875 159.375 121.094L169.01 114.844C169.792 114.323 170.052 113.021 169.531 112.24L132.813 48.6979C132.031 47.3958 130.99 46.875 129.427 46.875H120.573C119.271 46.875 117.969 47.6563 117.188 48.6979L79.948 112.24C79.4271 113.021 79.6876 114.323 80.4688 114.844Z" fill="#2AE7A8"/>
</g>
<defs>
<clipPath id="clip0_9_814">
<rect width="250" height="250" fill="white"/>
</clipPath>
</defs>
</svg>
